Newaita-dark/actions/symbolic/format-text-underline-symbolic.svg

<svg height="16" viewBox="0 0 16 16" width="16" xmlns="http://www.w3.org/2000/svg"><g fill="#e0e0e0"><path d="m7.9375 1.777344c-2.199219 0-3.96875 1.773437-3.96875 3.96875v5.292968c0 .367188.296875.664063.660156.664063h.664063c.367187 0 .660156-.296875.660156-.664063v-2.3125h3.96875v2.3125c0 .367188.296875.664063.664063.664063h.660156c.367187 0 .660156-.296875.660156-.664063v-5.292968c0-2.195313-1.769531-3.96875-3.96875-3.96875zm0 1.984375c1.101562 0 1.984375.886719 1.984375 1.984375v.992187h-3.96875v-.992187c0-1.097656.886719-1.984375 1.984375-1.984375zm0 0"/><path d="m1.984375 13.023438h11.90625c.367187 0 .664063.296874.664063.664062 0 .363281-.296876.660156-.664063.660156h-11.90625c-.363281 0-.660156-.296875-.660156-.660156 0-.367188.296875-.664062.660156-.664062zm0 0"/></g></svg>

<?xml version="1.0" encoding="UTF-8"?>
<svg xmlns="http://www.w3.org/2000/svg" xmlns:xlink="http://www.w3.org/1999/xlink" width="16px" height="16px" viewBox="0 0 16 16" version="1.1">
<g id="surface1">
<path style=" stroke:none;fill-rule:nonzero;fill:rgb(87.843138%,87.843138%,87.843138%);fill-opacity:1;" d="M 7.9375 1.777344 C 5.738281 1.777344 3.96875 3.550781 3.96875 5.746094 L 3.96875 11.039062 C 3.96875 11.40625 4.265625 11.703125 4.628906 11.703125 L 5.292969 11.703125 C 5.660156 11.703125 5.953125 11.40625 5.953125 11.039062 L 5.953125 8.726562 L 9.921875 8.726562 L 9.921875 11.039062 C 9.921875 11.40625 10.21875 11.703125 10.585938 11.703125 L 11.246094 11.703125 C 11.613281 11.703125 11.90625 11.40625 11.90625 11.039062 L 11.90625 5.746094 C 11.90625 3.550781 10.136719 1.777344 7.9375 1.777344 Z M 7.9375 3.761719 C 9.039062 3.761719 9.921875 4.648438 9.921875 5.746094 L 9.921875 6.738281 L 5.953125 6.738281 L 5.953125 5.746094 C 5.953125 4.648438 6.839844 3.761719 7.9375 3.761719 Z M 7.9375 3.761719 "/>
<path style=" stroke:none;fill-rule:nonzero;fill:rgb(87.843138%,87.843138%,87.843138%);fill-opacity:1;" d="M 1.984375 13.023438 L 13.890625 13.023438 C 14.257812 13.023438 14.554688 13.320312 14.554688 13.6875 C 14.554688 14.050781 14.257812 14.347656 13.890625 14.347656 L 1.984375 14.347656 C 1.621094 14.347656 1.324219 14.050781 1.324219 13.6875 C 1.324219 13.320312 1.621094 13.023438 1.984375 13.023438 Z M 1.984375 13.023438 "/>
</g>
</svg>
